X:405
T: Price of My Pig
S: Darley & McCall Collection
Z: B.Black (arr.)
L: 1/8
M: 6/8
R: jig
K: Ador
D|EAA AGA|BAB GAB|cBc BAB|AGE E2D|
EAA AGA|BAB GAB|cBc BAB|A3 A2 :|
d|ede dcd|cBc BAG|cBc BAB|AGE E2D|
EAA AGA| BAB GAB|eBc BAB|A3 A2 :|
